X:620
T: Lady on the Lake
T: Sp\'eirbhean an Locha
S: B.Breathnach:"Ceol Rince na hEireann" IV/125
Z: B.Black
L: 1/8
M: 4/4
R: reel
K: Edor
F|EFGB BAdB|(3ABA FB AGFD|EFGB BABg|fedf edBA|
EFGB BAdB|(3ABA FB AGFD|EFGB BABg|fedf e2 e ||
f|(3gfe be (3gfe be|fdad fdaf|(3gfe be (3gfe be|\
fedf e2 ef|
(3gfe be (3gfe be|fdad fdaf|gbag fgaf|gfe^d e2 e ||
